groups/oxygen/ester.svg

<svg height="256" viewBox="0 0 256 256" width="256" xmlns="http://www.w3.org/2000/svg"><path d="m0 0h256v256h-256z" fill="#fff"/><g fill="none" stroke-width="2"><path d="m227 167.2-54.8-31.5" stroke="#000"/><path d="m176.9 138.4-.1-45" stroke="#000"/><path d="m167.4 138.4-.1-44.9" stroke="#000"/><path d="m172.2 135.7-41.3 23.9" stroke="#000"/><path d="m103.9 159.7-27.9-16.1" stroke="#000"/><path d="m174.9 137.2-2.7-1.5-2.1 1.2" stroke="#000" stroke-miterlimit="10"/><path d="m242.8 139.75c-2.058-1.183-3.634 1.561-1.577 2.743 2.058 1.183.482 3.926-1.576 2.744-2.058-1.183-3.634 1.561-1.577 2.743 2.058 1.183.481 3.926-1.576 2.744-2.058-1.182-3.634 1.561-1.577 2.744 2.058 1.182.481 3.926-1.576 2.743-2.058-1.182-3.635 1.562-1.577 2.744s.481 3.926-1.577 2.744c-2.057-1.183-3.634 1.561-1.576 2.743 2.058 1.183.481 3.926-1.577 2.744-2.057-1.182-3.634 1.561-1.576 2.744 2.057 1.182.481 3.926-1.577 2.743-2.057-1.182-3.634 1.562-1.576 2.744 2.057 1.182.481 3.926-1.577 2.744-2.058-1.183-3.634 1.561-1.576 2.743 2.057 1.183.481 3.926-1.577 2.744-2.058-1.183-3.634 1.561-1.577 2.743 2.058 1.183.481 3.926-1.576 2.744-2.058-1.182-3.634 1.561-1.577 2.744 2.058 1.182.481 3.926-1.576 2.743" stroke="#7f7f7f"/></g><text font-family="sans-serif" font-size="37" x="160.6" y="91.4">O</text><text font-family="sans-serif" font-size="37" x="106" y="186.4">O</text><text font-family="sans-serif" font-size="37" x="12.8" y="154.9">H</text><text font-family="sans-serif" font-size="25" x="39" y="170">3</text><text font-family="sans-serif" font-size="37" x="51.2" y="154.9">C</text></svg>

<?xml version='1.0' encoding='iso-8859-1'?>
<svg version='1.1' baseProfile='full'
              xmlns='http://www.w3.org/2000/svg'
                      xmlns:rdkit='http://www.rdkit.org/xml'
                      xmlns:xlink='http://www.w3.org/1999/xlink'
                  xml:space='preserve'
width='256px' height='256px' viewBox='0 0 256 256'>
<!-- END OF HEADER -->
<rect style='opacity:1.0;fill:#FFFFFF;stroke:none' width='256.0' height='256.0' x='0.0' y='0.0'> </rect>
<path class='bond-0 atom-0 atom-1' d='M 227.0,167.2 L 172.2,135.7' style='fill:none;fill-rule:evenodd;stroke:#000000;stroke-width:2.0px;stroke-linecap:butt;stroke-linejoin:miter;stroke-opacity:1' />
<path class='bond-1 atom-1 atom-2' d='M 176.9,138.4 L 176.8,93.4' style='fill:none;fill-rule:evenodd;stroke:#000000;stroke-width:2.0px;stroke-linecap:butt;stroke-linejoin:miter;stroke-opacity:1' />
<path class='bond-1 atom-1 atom-2' d='M 167.4,138.4 L 167.3,93.5' style='fill:none;fill-rule:evenodd;stroke:#000000;stroke-width:2.0px;stroke-linecap:butt;stroke-linejoin:miter;stroke-opacity:1' />
<path class='bond-2 atom-1 atom-3' d='M 172.2,135.7 L 130.9,159.6' style='fill:none;fill-rule:evenodd;stroke:#000000;stroke-width:2.0px;stroke-linecap:butt;stroke-linejoin:miter;stroke-opacity:1' />
<path class='bond-3 atom-3 atom-4' d='M 103.9,159.7 L 76.0,143.6' style='fill:none;fill-rule:evenodd;stroke:#000000;stroke-width:2.0px;stroke-linecap:butt;stroke-linejoin:miter;stroke-opacity:1' />
<path d='M 174.9,137.2 L 172.2,135.7 L 170.1,136.9' style='fill:none;stroke:#000000;stroke-width:2.0px;stroke-linecap:butt;stroke-linejoin:miter;stroke-miterlimit:10;stroke-opacity:1;' />
<path class='atom-1' d='M242.8,139.75 C240.742,138.567 239.166,141.311 241.223,142.493 C243.281,143.676 241.705,146.419 239.647,145.237 C237.589,144.054 236.013,146.798 238.07,147.98 C240.128,149.163 238.551,151.906 236.494,150.724 C234.436,149.542 232.86,152.285 234.917,153.468 C236.975,154.65 235.398,157.394 233.341,156.211 C231.283,155.029 229.706,157.773 231.764,158.955 C233.822,160.137 232.245,162.881 230.187,161.699 C228.13,160.516 226.553,163.26 228.611,164.442 C230.669,165.625 229.092,168.368 227.034,167.186 C224.977,166.004 223.4,168.747 225.458,169.93 C227.515,171.112 225.939,173.856 223.881,172.673 C221.824,171.491 220.247,174.235 222.305,175.417 C224.362,176.599 222.786,179.343 220.728,178.161 C218.67,176.978 217.094,179.722 219.152,180.904 C221.209,182.087 219.633,184.83 217.575,183.648 C215.517,182.465 213.941,185.209 215.998,186.391 C218.056,187.574 216.479,190.317 214.422,189.135 C212.364,187.953 210.788,190.696 212.845,191.879 C214.903,193.061 213.326,195.805 211.269,194.622' style='fill:none;stroke:#7F7F7F;stroke-width:2.0px;stroke-linecap:butt;stroke-linejoin:miter;stroke-opacity:1' />
<text x='160.6' y='91.4' class='atom-2' style='font-size:37px;font-style:normal;font-weight:normal;fill-opacity:1;stroke:none;font-family:sans-serif;text-anchor:start;fill:#000000' >O</text>
<text x='106.0' y='186.4' class='atom-3' style='font-size:37px;font-style:normal;font-weight:normal;fill-opacity:1;stroke:none;font-family:sans-serif;text-anchor:start;fill:#000000' >O</text>
<text x='12.8' y='154.9' class='atom-4' style='font-size:37px;font-style:normal;font-weight:normal;fill-opacity:1;stroke:none;font-family:sans-serif;text-anchor:start;fill:#000000' >H</text>
<text x='39.0' y='170.0' class='atom-4' style='font-size:25px;font-style:normal;font-weight:normal;fill-opacity:1;stroke:none;font-family:sans-serif;text-anchor:start;fill:#000000' >3</text>
<text x='51.2' y='154.9' class='atom-4' style='font-size:37px;font-style:normal;font-weight:normal;fill-opacity:1;stroke:none;font-family:sans-serif;text-anchor:start;fill:#000000' >C</text>
</svg>
